icons/erlang-light.svg

<svg width="256" height="256" viewBox="0 0 256 256" fill="none" xmlns="http://www.w3.org/2000/svg">
<path d="M196 0H60C26.8629 0 0 26.8629 0 60V196C0 229.137 26.8629 256 60 256H196C229.137 256 256 229.137 256 196V60C256 26.8629 229.137 0 196 0Z" fill="#F4F2ED"/>
<path d="M59.4775 167.016C43.8976 150.511 34.7816 127.71 34.8047 100.505C34.7837 76.446 42.345 55.766 55.3443 40.0299L55.3238 40.0378H28V167.018H59.4586L59.4775 167.016ZM203.38 167.027C210.092 159.84 216.106 151.377 221.556 141.698L191.313 126.582C180.691 143.844 165.158 159.732 143.68 159.838C112.42 159.732 100.138 133.01 100.205 98.6151H217.019C217.175 94.732 217.175 92.9264 217.019 91.0573C217.782 70.5946 212.357 53.3946 202.488 40L202.437 40.0378H228.738V167.018H203.323L203.38 167.027ZM102.096 69.1375C103.389 53.5652 115.67 43.0932 130.07 43.0611C144.569 43.0932 155.044 53.5652 155.399 69.1375H102.096Z" fill="#A90432"/>
<path d="M44.6336 188.56V183.269H28.3779V214.636H44.6336V209.345H34.4265V201.031H44.2555V195.74H34.4265V188.56H44.6336ZM72.2304 201.409C76.2828 200.807 78.5079 196.794 78.657 192.717C78.5079 186.048 74.1836 183.289 68.072 183.269H59.7551V214.636H65.8037V202.165L73.3645 214.636H80.9253L72.2304 201.409ZM65.8037 188.182H66.5598C69.8598 188.306 72.3365 189.059 72.2304 193.095C72.3365 196.794 69.9438 197.797 66.5598 197.63H65.8037V188.182ZM99.8272 183.269H93.7786V214.636H108.522V209.345H99.8272V183.269ZM139.521 208.211L142.167 214.636H148.594L136.875 182.513H131.96L119.485 214.636H125.912L128.558 208.211H139.521ZM138.009 203.299H130.448L133.851 191.584L138.009 203.299ZM159.935 214.636H166.362V193.473L182.996 215.392H187.532V183.269H181.105V204.433L164.472 182.513H159.935V214.636ZM213.995 198.008V202.921H220.799C220.658 206.869 217.425 210.214 213.617 210.101C207.602 210.214 204.621 204.403 204.544 199.141C204.621 193.95 207.56 187.888 213.617 187.804C216.795 187.888 219.483 190.062 220.799 192.717L226.092 190.071C223.764 185.17 219.063 182.453 213.617 182.513C204.243 182.453 198.24 190.187 198.117 199.141C198.24 207.873 204.075 215.65 213.239 215.77C223.135 215.65 227.711 207.747 227.604 198.763V198.008H213.995Z" fill="#231F20"/>
</svg>

<svg xmlns="http://www.w3.org/2000/svg" width="256" height="256" fill="none"><path fill="#F4F2ED" d="M196 0H60C26.863 0 0 26.863 0 60v136c0 33.137 26.863 60 60 60h136c33.137 0 60-26.863 60-60V60c0-33.137-26.863-60-60-60"/><path fill="#A90432" d="M59.478 167.016c-15.58-16.505-24.696-39.306-24.673-66.511-.021-24.059 7.54-44.739 20.54-60.475l-.021.008H28v126.98h31.459zm143.902.011c6.712-7.187 12.726-15.65 18.176-25.329l-30.243-15.116c-10.622 17.262-26.155 33.15-47.633 33.256-31.26-.106-43.542-26.828-43.475-61.223h116.814c.156-3.883.156-5.689 0-7.558.763-20.462-4.662-37.662-14.531-51.057l-.051.038h26.301v126.98h-25.415zm-101.284-97.89c1.293-15.572 13.574-26.044 27.974-26.076 14.499.032 24.974 10.504 25.329 26.077z"/><path fill="#231F20" d="M44.634 188.56v-5.291H28.378v31.367h16.256v-5.291H34.426v-8.314h9.83v-5.291h-9.83v-7.18zm27.596 12.849c4.053-.602 6.278-4.615 6.427-8.692-.15-6.669-4.473-9.428-10.585-9.448h-8.317v31.367h6.049v-12.471l7.56 12.471h7.561zm-6.426-13.227h.756c3.3.124 5.776.877 5.67 4.913.106 3.699-2.286 4.702-5.67 4.535h-.756zm34.023-4.913H93.78v31.367h14.743v-5.291h-8.695zm39.694 24.942 2.646 6.425h6.427l-11.719-32.123h-4.915l-12.475 32.123h6.427l2.646-6.425zm-1.512-4.912h-7.561l3.403-11.715zm21.926 11.337h6.427v-21.163l16.634 21.919h4.536v-32.123h-6.427v21.164l-16.633-21.92h-4.537zm54.06-16.628v4.913h6.804c-.141 3.948-3.374 7.293-7.182 7.18-6.015.113-8.996-5.698-9.073-10.96.077-5.191 3.016-11.253 9.073-11.337 3.178.084 5.866 2.258 7.182 4.913l5.293-2.646c-2.328-4.901-7.029-7.618-12.475-7.558-9.374-.06-15.377 7.674-15.5 16.628.123 8.732 5.958 16.509 15.122 16.629 9.896-.12 14.472-8.023 14.365-17.007v-.755z"/></svg>
